packages/core/src/svgs/tokens/branded/PASG.svg

<svg width="24" height="24" viewBox="0 0 24 24" fill="none" xmlns="http://www.w3.org/2000/svg">
<path fill-rule="evenodd" clip-rule="evenodd" d="M21.3764 12C21.3764 14.4868 20.3886 16.8717 18.6301 18.6301C16.8717 20.3886 14.4868 21.3764 12 21.3764C9.51323 21.3764 7.12825 20.3886 5.36982 18.6301C3.6114 16.8717 2.62352 14.4868 2.62352 12C2.62352 9.51324 3.6114 7.12825 5.36982 5.36982C7.12825 3.6114 9.51323 2.62352 12 2.62352C14.4868 2.62352 16.8717 3.6114 18.6301 5.36982C20.3886 7.12825 21.3764 9.51324 21.3764 12ZM22 12C22 14.6522 20.9464 17.1957 19.0711 19.071C17.1957 20.9464 14.6522 22 12 22C9.34784 22 6.80429 20.9464 4.92892 19.071C3.05357 17.1957 2 14.6522 2 12C2 9.34785 3.05357 6.80429 4.92892 4.92892C6.80429 3.05357 9.34784 2 12 2C14.6522 2 17.1957 3.05357 19.0711 4.92892C20.9464 6.80429 22 9.34785 22 12ZM19.3882 12C19.3882 13.9595 18.6098 15.8386 17.2242 17.2242C15.8388 18.6098 13.9595 19.3882 12 19.3882C10.0406 19.3882 8.16128 18.6098 6.77572 17.2242C5.39017 15.8386 4.61175 13.9595 4.61175 12C4.61175 10.0404 5.39017 8.16129 6.77572 6.77571C8.16128 5.39015 10.0406 4.61175 12 4.61175C13.9595 4.61175 15.8388 5.39015 17.2242 6.77571C18.6098 8.16129 19.3882 10.0404 19.3882 12ZM20.8236 12C20.8236 14.3401 19.8939 16.5845 18.2392 18.2392C16.5845 19.8938 14.3401 20.8235 12 20.8235C9.65982 20.8235 7.41555 19.8938 5.76082 18.2392C4.10608 16.5845 3.17647 14.3401 3.17647 12C3.17647 9.65983 4.10608 7.41554 5.76082 5.76081C7.41555 4.10608 9.65982 3.17647 12 3.17647C14.3401 3.17647 16.5845 4.10608 18.2392 5.76081C19.8939 7.41554 20.8236 9.65983 20.8236 12ZM8.7647 9.05881C8.37467 9.05881 8.00063 9.21375 7.72483 9.4895C7.44904 9.76538 7.29411 10.1394 7.29411 10.5293V13.4706C7.29411 13.8607 7.44904 14.2347 7.72483 14.5104C8.00063 14.7862 8.37467 14.9411 8.7647 14.9411C9.15472 14.9411 9.52874 14.7862 9.80462 14.5104C10.0804 14.2347 10.2353 13.8607 10.2353 13.4706V12.2176H9.17646L10.2353 11.0235V10.5293C10.2353 10.1394 10.0804 9.76538 9.80462 9.4895C9.52874 9.21375 9.15472 9.05881 8.7647 9.05881ZM13.7647 10.5293C13.7647 10.1394 13.9197 9.76538 14.1954 9.4895C14.4711 9.21375 14.8453 9.05881 15.2352 9.05881C15.6253 9.05881 15.9993 9.21375 16.2751 9.4895C16.551 9.76538 16.7059 10.1394 16.7059 10.5293V11.0235L15.647 12.2235H16.7059V13.4706C16.7059 13.8607 16.551 14.2347 16.2751 14.5104C15.9993 14.7862 15.6253 14.9411 15.2352 14.9411C14.8453 14.9411 14.4711 14.7862 14.1954 14.5104C13.9197 14.2347 13.7647 13.8607 13.7647 13.4706V10.5293Z" fill="black"/>
</svg>

<svg xmlns="http://www.w3.org/2000/svg" width="24" height="24" fill="none" viewBox="0 0 24 24">
    <path fill="#000" fill-rule="evenodd" d="M21.376 12a9.376 9.376 0 1 1-18.752 0 9.376 9.376 0 0 1 18.752 0M22 12a10 10 0 1 1-20 0 10 10 0 0 1 20 0m-2.612 0a7.388 7.388 0 1 1-14.776 0 7.388 7.388 0 0 1 14.776 0m1.436 0a8.824 8.824 0 1 1-17.648 0 8.824 8.824 0 0 1 17.648 0M8.764 9.059a1.47 1.47 0 0 0-1.47 1.47v2.942a1.47 1.47 0 1 0 2.941 0v-1.253H9.176l1.06-1.194v-.495a1.47 1.47 0 0 0-1.471-1.47m5 1.47a1.471 1.471 0 0 1 2.942 0v.495l-1.059 1.2h1.059v1.247a1.47 1.47 0 1 1-2.941 0z" clip-rule="evenodd"/>
</svg>
